public/assets/noun_862561_cc.svg

<svg xmlns="http://www.w3.org/2000/svg" viewBox="0 0 100 100"><path d="M50 2.248c-20.046 0-36.354 16.309-36.355 36.355 0 4.068.667 8.062 1.982 11.873 6.04 17.401 16.431 33.138 30.017 45.479A6.139 6.139 0 0 0 50 97.752a6.102 6.102 0 0 0 4.322-1.766c13.617-12.37 24.009-28.108 30.051-45.513a36.33 36.33 0 0 0 1.982-11.871C86.355 18.557 70.047 2.248 50 2.248zm0 63.861c-15.241 0-27.64-12.397-27.64-27.637S34.759 10.833 50 10.833c15.24 0 27.639 12.397 27.639 27.638 0 15.241-12.399 27.638-27.639 27.638z" fill="#d39f30"/><g fill="#d39f30"><path d="M61.362 23.837a3.123 3.123 0 0 0-3.112-3h-16.5a3.122 3.122 0 0 0-3.112 3c-1.611.124-2.888 1.459-2.888 3.101a3.129 3.129 0 0 0 3.125 3.125h.487l1.64 25.107c.035.525.471.935.998.935h16a1 1 0 0 0 .998-.935l1.641-25.107h.486a3.129 3.129 0 0 0 3.125-3.125c0-1.641-1.277-2.977-2.888-3.101zm-19.612-.999h16.5c.569 0 1.042.426 1.115.976h-18.73c.073-.55.545-.976 1.115-.976zm15.313 31.267H42.937l-1.571-24.042h17.268l-1.571 24.042zm4.062-26.042h-22.25c-.62 0-1.125-.505-1.125-1.125s.505-1.125 1.125-1.125h22.25c.62 0 1.125.505 1.125 1.125s-.505 1.125-1.125 1.125z"/><path d="M50 48.209c3.377 0 6.125-2.748 6.125-6.125S53.377 35.959 50 35.959s-6.125 2.748-6.125 6.125 2.748 6.125 6.125 6.125zm0-10.25c2.274 0 4.125 1.851 4.125 4.125S52.274 46.209 50 46.209s-4.125-1.851-4.125-4.125 1.851-4.125 4.125-4.125z"/></g></svg>

<svg xmlns="http://www.w3.org/2000/svg" xmlns:xlink="http://www.w3.org/1999/xlink" version="1.1" x="0px" y="0px" viewBox="0 0 100 100" enable-background="new 0 0 100 100" xml:space="preserve"><path style="fill:#d39f30" d="M50,2.248c-20.046,0-36.354,16.309-36.355,36.355c0,4.068,0.667,8.062,1.982,11.873  c6.04,17.401,16.431,33.138,30.017,45.479c1.166,1.159,2.712,1.797,4.356,1.797c1.645,0,3.189-0.638,4.322-1.766  c13.617-12.37,24.009-28.108,30.051-45.513c1.314-3.81,1.982-7.805,1.982-11.871C86.355,18.557,70.047,2.248,50,2.248z M50,66.109  c-15.241,0-27.64-12.397-27.64-27.637c0-15.24,12.399-27.639,27.64-27.639c15.24,0,27.639,12.397,27.639,27.638  C77.639,53.712,65.24,66.109,50,66.109z"/><g><path style="fill:#d39f30" d="M61.362,23.837c-0.067-1.664-1.433-3-3.112-3h-16.5c-1.68,0-3.045,1.336-3.112,3c-1.611,0.124-2.888,1.459-2.888,3.101   c0,1.723,1.402,3.125,3.125,3.125h0.487l1.64,25.107c0.035,0.525,0.471,0.935,0.998,0.935h16c0.527,0,0.964-0.409,0.998-0.935   l1.641-25.107h0.486c1.723,0,3.125-1.402,3.125-3.125C64.25,25.297,62.973,23.961,61.362,23.837z M41.75,22.838h16.5   c0.569,0,1.042,0.426,1.115,0.976h-18.73C40.708,23.264,41.18,22.838,41.75,22.838z M57.063,54.105H42.937l-1.571-24.042h17.268   L57.063,54.105z M61.125,28.063h-22.25c-0.62,0-1.125-0.505-1.125-1.125s0.505-1.125,1.125-1.125h22.25   c0.62,0,1.125,0.505,1.125,1.125S61.745,28.063,61.125,28.063z"/><path style="fill:#d39f30" d="M50,48.209c3.377,0,6.125-2.748,6.125-6.125S53.377,35.959,50,35.959c-3.377,0-6.125,2.748-6.125,6.125   S46.623,48.209,50,48.209z M50,37.959c2.274,0,4.125,1.851,4.125,4.125S52.274,46.209,50,46.209s-4.125-1.851-4.125-4.125   S47.726,37.959,50,37.959z"/></g><!-- <text x="0" y="115" fill="#000000" font-size="5px" font-weight="bold" font-family="'Helvetica Neue', Helvetica, Arial-Unicode, Arial, Sans-serif">Created by habione 404</text><text x="0" y="120" fill="#000000" font-size="5px" font-weight="bold" font-family="'Helvetica Neue', Helvetica, Arial-Unicode, Arial, Sans-serif">from the Noun Project</text> --></svg>
